X:1
T:[ID 2-128]
T:[ID 2-128]
T:Bezeichnung standardisiert: Menuet [mit Trio] Men\"uet Con Trio 4.
T:Urheber unbekannt Datum in der hier transkribierten schriftlichen Quelle: 1767
C:Urheber unbekannt
C:Datum in der hier transkribierten schriftlichen Quelle: 1767
L:1/8
M:3/4
K:D
V:1 treble 
V:1
 (3def d4 | (3efg (3fga e2 | (3def d4 | (3efg (3fga e2 | f6 | e6 | ed c2 B2 | A6 :: aa f2 a2 | %9
 aa f2 a2 | gg e2 g2 | gg e2 g2 | fgabag | f2 DCDC | D2 d2 c2 | d6 :| %16
[M:3/4]"^Trio" !fermata!A2 A2 A2 | A2 FG A2 | f2 f2 f2 | f2 de f2 | ee e2 c2 | dd d2 B2 | %22
 cB A2 ^G2 | A6 :: (3efg g4 | ge ec cA | FG A4 | A2 FG A2 | B2 GBdg | A2 FAdf | e2 d2 c2 | d6 :| %32

